icons/imba.svg

<svg width="16" height="16" viewBox="0 0 16 16" fill="none" xmlns="http://www.w3.org/2000/svg">
<path fill-rule="evenodd" clip-rule="evenodd" d="M8.67893 4.47974C12.1026 5.6912 14.6564 7.29976 14.3829 8.07256C14.3678 8.11524 14.3444 8.15448 14.3131 8.19032C14.0973 8.94216 12.9251 10.2539 11.3061 11.482C9.26604 13.0294 7.28911 13.8578 6.89052 13.3323C6.53025 12.8574 7.58281 11.4388 9.29503 10.0277C9.29476 10.0278 9.29448 10.0278 9.2942 10.0279C6.41008 10.5169 3.98186 10.3816 3.87063 9.72554C3.76 9.0731 5.98281 8.15139 8.84425 7.66028C8.46695 7.54443 8.0806 7.41696 7.68866 7.27828C4.26499 6.06681 1.71124 4.45825 1.98469 3.68546C2.25814 2.91266 5.25525 3.26827 8.67893 4.47974Z" fill="#15CDC5"/>
</svg>

<svg xmlns="http://www.w3.org/2000/svg" width="16" height="16" fill="none"><path fill="#15CDC5" fill-rule="evenodd" d="M8.679 4.48c3.424 1.211 5.977 2.82 5.704 3.593a.362.362 0 0 1-.07.117c-.216.752-1.388 2.064-3.007 3.292-2.04 1.547-4.017 2.376-4.415 1.85-.36-.475.692-1.893 2.404-3.304-2.885.489-5.313.354-5.424-.302C3.76 9.073 5.983 8.15 8.844 7.66a28.905 28.905 0 0 1-1.155-.382C4.265 6.067 1.71 4.458 1.985 3.685c.273-.772 3.27-.417 6.694.795Z" clip-rule="evenodd"/></svg>
